{ "compressionlevel":-1,
 "height":20,
 "infinite":false,
 "layers":[
        {
         "data":[14, 2, 2, 2, 2, 2, 2, 2, 2, 2, 16, 17, 14, 2, 2, 2, 16, 17, 17, 23, 23, 23, 29, 29, 29, 29, 29, 23, 23, 17,
            14, 14, 14, 14, 14, 14, 14, 14, 14, 2, 2, 2, 2, 2, 2, 2, 2, 17, 23, 29, 29, 29, 35, 35, 35, 35, 35, 29, 29, 23,
            20, 20, 20, 14, 14, 14, 14, 14, 14, 14, 2, 2, 2, 2, 2, 2, 17, 2, 2, 2, 35, 35, 41, 41, 41, 41, 41, 35, 35, 29,
            26, 14, 14, 20, 20, 2, 2, 2, 14, 2, 2, 2, 17, 14, 15, 2, 2, 2, 2, 2, 41, 41, 35, 38, 39, 40, 41, 41, 41, 35,
            14, 20, 20, 26, 26, 2, 2, 2, 2, 2, 2, 2, 2, 2, 2, 2, 2, 2, 2, 41, 41, 41, 41, 14, 14, 38, 39, 40, 41, 41,
            20, 26, 26, 32, 32, 32, 32, 2, 2, 15, 2, 2, 2, 14, 14, 15, 2, 17, 2, 2, 14, 14, 14, 20, 20, 26, 38, 39, 40, 41,
            26, 32, 32, 38, 38, 38, 2, 2, 14, 14, 14, 2, 2, 2, 2, 15, 2, 2, 14, 2, 20, 20, 20, 26, 26, 32, 38, 39, 40, 41,
            32, 38, 38, 38, 39, 40, 2, 32, 14, 14, 14, 20, 2, 2, 20, 2, 2, 2, 2, 2, 2, 2, 2, 32, 32, 38, 38, 39, 40, 41,
            38, 38, 39, 40, 41, 2, 2, 14, 20, 20, 20, 26, 2, 2, 2, 2, 2, 15, 16, 2, 2, 2, 2, 38, 38, 38, 39, 40, 41, 0,
            38, 39, 40, 14, 14, 2, 20, 20, 26, 26, 2, 2, 32, 38, 32, 2, 2, 2, 2, 16, 2, 38, 38, 38, 39, 40, 41, 0, 0, 0,
            39, 40, 14, 20, 2, 2, 26, 26, 2, 2, 32, 38, 2, 2, 2, 2, 20, 20, 2, 2, 2, 17, 15, 16, 17, 0, 0, 0, 0, 0,
            2, 2, 2, 2, 2, 2, 2, 2, 2, 2, 2, 2, 2, 2, 2, 2, 2, 2, 2, 14, 15, 16, 17, 16, 17, 0, 0, 0, 0, 0,
            14, 20, 26, 32, 2, 2, 38, 38, 39, 40, 41, 29, 29, 38, 38, 38, 32, 32, 26, 20, 14, 14, 15, 16, 17, 0, 0, 0, 0, 0,
            20, 26, 2, 2, 2, 2, 40, 41, 35, 35, 35, 35, 35, 35, 35, 2, 2, 2, 2, 2, 2, 20, 14, 15, 16, 17, 0, 0, 0, 0,
            26, 2, 2, 38, 39, 2, 2, 41, 41, 41, 41, 41, 2, 2, 2, 2, 15, 16, 2, 2, 2, 26, 20, 14, 14, 15, 16, 17, 0, 0,
            32, 2, 38, 39, 40, 41, 2, 2, 2, 2, 2, 2, 2, 2, 2, 2, 2, 2, 2, 16, 17, 32, 26, 20, 20, 14, 14, 15, 16, 17,
            38, 2, 39, 40, 41, 2, 2, 2, 2, 2, 23, 23, 23, 23, 23, 23, 23, 20, 21, 22, 23, 38, 32, 26, 26, 20, 14, 15, 16, 17,
            38, 39, 2, 2, 2, 2, 29, 29, 29, 29, 29, 29, 29, 29, 29, 29, 29, 26, 27, 28, 29, 17, 17, 32, 32, 14, 15, 16, 17, 17,
            38, 39, 40, 41, 41, 41, 35, 35, 35, 35, 35, 35, 35, 35, 35, 35, 35, 32, 33, 34, 35, 23, 23, 17, 17, 17, 17, 17, 17, 23,
            0, 0, 38, 39, 40, 41, 41, 41, 41, 41, 41, 41, 41, 41, 41, 41, 41, 38, 39, 40, 41, 29, 29, 23, 23, 23, 23, 23, 23, 29],
         "height":20,
         "id":1,
         "name":"Tile Layer 1",
         "opacity":1,
         "type":"tilelayer",
         "visible":true,
         "width":30,
         "x":0,
         "y":0
        }],
 "nextlayerid":2,
 "nextobjectid":1,
 "orientation":"orthogonal",
 "renderorder":"left-up",
 "tiledversion":"1.12.1",
 "tileheight":32,
 "tilesets":[
        {
         "firstgid":1,
         "source":"player.tsx"
        }],
 "tilewidth":32,
 "type":"map",
 "version":"1.10",
 "width":30
}